public/svg/nuxt.svg

<svg width="284" height="192" viewBox="0 0 284 192" fill="none" xmlns="http://www.w3.org/2000/svg">
  <path
    d="M158.106 182H256.246C259.363 182 262.425 181.206 265.125 179.696C267.807 178.203 270.049 176.032 271.624 173.399C273.177 170.799 273.998 167.827 274 164.799C274 161.78 273.176 158.815 271.616 156.2L205.709 45.6297C204.133 42.9985 201.892 40.8275 199.211 39.3348C196.498 37.8215 193.441 37.028 190.334 37.0302C187.216 37.0302 184.155 37.8252 181.456 39.3348C178.774 40.8276 176.534 42.9986 174.959 45.6297L158.106 73.9204L125.158 18.5975C123.581 15.9664 121.339 13.7958 118.657 12.3036C115.943 10.7908 112.886 9.99772 109.778 10C106.661 10 103.598 10.795 100.898 12.3036C98.2165 13.796 95.9749 15.9666 94.3985 18.5975L12.3822 156.2C10.826 158.8 10.0029 161.771 10 164.799C10 167.818 10.8178 170.785 12.376 173.399C13.9513 176.032 16.1927 178.203 18.8749 179.696C21.5887 181.21 24.6458 182.003 27.754 182H89.3578C113.766 182 131.766 171.616 144.152 151.356L190.328 73.9204L238.667 155.006H174.222L158.106 182ZM88.3523 154.979L45.3616 154.969L109.806 46.8613L141.962 100.916L120.432 137.044C112.207 150.189 102.863 154.978 88.3533 154.978L88.3523 154.979Z"
    fill="#00D0FF" />
</svg>

<svg xmlns="http://www.w3.org/2000/svg" width="284" height="192" fill="none" viewBox="0 0 284 192"><path fill="#00d0ff" d="M158.106 182h98.14a18.2 18.2 0 0 0 8.879-2.304 17.5 17.5 0 0 0 6.499-6.297 16.8 16.8 0 0 0 2.376-8.6c0-3.019-.824-5.984-2.384-8.599L205.709 45.63a17.5 17.5 0 0 0-6.498-6.295 18.2 18.2 0 0 0-8.877-2.305c-3.118 0-6.179.795-8.878 2.305a17.5 17.5 0 0 0-6.497 6.295l-16.853 28.29-32.948-55.323a17.5 17.5 0 0 0-6.501-6.293A18.2 18.2 0 0 0 109.778 10c-3.117 0-6.18.795-8.88 2.304a17.5 17.5 0 0 0-6.5 6.294L12.382 156.2A16.8 16.8 0 0 0 10 164.799c0 3.019.818 5.986 2.376 8.6a17.5 17.5 0 0 0 6.499 6.297A18.2 18.2 0 0 0 27.754 182h61.604c24.408 0 42.408-10.384 54.794-30.644l46.176-77.436 48.339 81.086h-64.445zm-69.754-27.021-42.99-.01 64.444-108.108 32.156 54.055-21.53 36.128c-8.225 13.145-17.569 17.934-32.079 17.934z"/></svg>
